src/Resources/contao/themes/flexible/icons/article.svg

<svg xmlns="http://www.w3.org/2000/svg" width="16" height="16" viewBox="0 0 16 16"><path fill="#FFF" d="M2.88 1.92h10.24v12.16H2.88V1.92z"/><linearGradient id="a" gradientUnits="userSpaceOnUse" x1="35078" y1="51682.508" x2="35453.004" y2="52057.512" gradientTransform="matrix(.032 0 0 .032 -1120.496 -1651.84)"><stop offset="0" stop-color="#ccc"/><stop offset="1" stop-color="#b3b3b3"/></linearGradient><path fill="url(#a)" d="M12.96 2.24v11.52H3.04V2.24h9.92m.64-.64H2.4v12.8h11.2V1.6zM12 4.096v-.64H4.064v.64H12zm0 1.696v-.64H4.064v.64H12zm0 1.696v-.64H4.064v.64H12zm0 1.696v-.64H4.064v.64H12zm0 1.696v-.64H4.064v.64H12zm0 1.696v-.641H4.064v.641H12z"/><path fill="#FFF" d="M6.08 12.8l-.064-1.504.576-2.399s1.728-.833 2.496.227c.767 1.052.512 2.204.512 2.204L6.08 12.8z"/><linearGradient id="b" gradientUnits="userSpaceOnUse" x1="35272.242" y1="51768.969" x2="35397.727" y2="51894.453" gradientTransform="matrix(.032 0 0 .032 -1120.496 -1651.84)"><stop offset="0" stop-color="#edad3b"/><stop offset="1" stop-color="#dba049"/></linearGradient><path fill="url(#b)" d="M15.828 1.604s.098-.297-.834-.976C14.06-.05 13.656.014 13.656.014c-.504-.04-.711-.017-.982.303l-6.37 8.75a.425.425 0 0 0-.066.133h-.016s-.633 3.98-.502 4.074c.118.084 3.025-1.394 3.637-1.682a.337.337 0 0 0 .102-.047.41.41 0 0 0 .107-.105l6.261-8.6c.387-.54 0-1.236.001-1.236zM7.538 12.21s-.36-.84-1.02-.69l-.355.48.526-2.855c.52.033.92.16 1.165.261.343.146.763.38.98.72.506.79.625 1.202.625 1.202l-1.921.882z"/></svg>

<svg id="55f65d26-6a10-4ce3-8ace-201268f08474" data-name="article" xmlns="http://www.w3.org/2000/svg" xmlns:xlink="http://www.w3.org/1999/xlink" width="16" height="16" viewBox="0 0 16 16"><defs><linearGradient id="15ac09d0-7877-4fb8-8b15-5e4437aa3ae8" x1="56253" y1="-68153.24" x2="56628" y2="-68528.24" gradientTransform="matrix(0.03, 0, 0, -0.03, -1798.1, -2178.9)" gradientUnits="userSpaceOnUse"><stop offset="0" stop-color="#ccc"/><stop offset="1" stop-color="#b3b3b3"/></linearGradient><linearGradient id="e487ed42-29a2-4971-b060-b384d7f0c862" x1="56447.24" y1="-68239.72" x2="56572.73" y2="-68365.21" gradientTransform="matrix(0.03, 0, 0, -0.03, -1798.1, -2178.9)" gradientUnits="userSpaceOnUse"><stop offset="0" stop-color="#edad3b"/><stop offset="1" stop-color="#dba049"/></linearGradient></defs><title>article</title><path d="M2.88,1.92H13.12V14.08H2.88Z" style="fill:#fff"/><path d="M13,2.24V13.76H3V2.24H13m.64-.64H2.4V14.4H13.6ZM12,4.1V3.46H4.06V4.1Zm0,1.7V5.15H4.06v.64Zm0,1.7V6.85H4.06v.64Zm0,1.7V8.54H4.06v.64Zm0,1.7v-.64H4.06v.64Zm0,1.7v-.64H4.06v.64Z" style="fill:url(#15ac09d0-7877-4fb8-8b15-5e4437aa3ae8)"/><path d="M6.08,12.8,6,11.3l.58-2.4s1.73-.83,2.5.23a3,3,0,0,1,.51,2.2Z" style="fill:#fff"/><path d="M15.83,1.6s.1-.3-.83-1S13.66,0,13.66,0c-.5,0-.71,0-1,.3L6.3,9.07a.43.43,0,0,0-.07.13h0a39.71,39.71,0,0,0-.5,4.07c.12.08,3-1.39,3.64-1.68l.1,0a.41.41,0,0,0,.11-.1l6.26-8.6A1.27,1.27,0,0,0,15.83,1.6ZM7.54,12.21s-.36-.84-1-.69L6.16,12l.53-2.85a3.69,3.69,0,0,1,1.16.26,2.18,2.18,0,0,1,1,.72,5.33,5.33,0,0,1,.63,1.2Z" style="fill:url(#e487ed42-29a2-4971-b060-b384d7f0c862)"/></svg>
